gama.ui.shared/icons_svg/dark/navigator/file.reveal.svg

<svg height="25" viewBox="-742.997 -3555.419 25 25" width="25" xmlns="http://www.w3.org/2000/svg"><g fill="none"><path d="m-738.657-3554.9187h16.32c2.1208 0 3.84 1.7192 3.84 3.84v16.32c0 2.1207-1.7192 3.84-3.84 3.84h-16.32c-2.1207 0-3.84-1.7193-3.84-3.84v-16.32c0-2.1208 1.7193-3.84 3.84-3.84z" fill="#666"/><path d="m-738.657-3554.9187h16.32c2.1208 0 3.84 1.7192 3.84 3.84v16.32c0 2.1207-1.7192 3.84-3.84 3.84h-16.32c-2.1207 0-3.84-1.7193-3.84-3.84v-16.32c0-2.1208 1.7193-3.84 3.84-3.84z" stroke="#fff" stroke-linecap="round" stroke-linejoin="round" stroke-width=".25"/><path d="m-738.4699-3543.0633c1.7074-4.4033 6.66115-6.5887 11.0645-4.8814 2.2408.8687 4.0125 2.6407 4.8814 4.8814.03605.093.03605.1963 0 .2893-1.7074 4.4032-6.6612 6.5887-11.0645 4.8813-2.2408-.8689-4.0125-2.6406-4.8814-4.8813-.0361-.093-.0361-.1963 0-.2893zm5.1706 4.4247c3.9429 1.5289 8.3726-.3857 9.97165-4.2801-.80665-1.9627-2.38425-3.5113-4.36695-4.2803-3.9429-1.5287-8.3727.386-9.9717 4.2803.8067 1.9627 2.3843 3.5113 4.367 4.2801zm2.8023-1.0801c-1.7673 0-3.2-1.4327-3.2-3.2s1.4327-3.2 3.2-3.2 3.2 1.4327 3.2 3.2-1.4327 3.2-3.2 3.2zm0-.8c1.3255 0 2.4-1.0745 2.4-2.4 0-1.3253-1.0745-2.4-2.4-2.4-1.32545 0-2.4 1.0747-2.4 2.4 0 1.3255 1.07455 2.4 2.4 2.4z" fill="#c0e0ff"/></g></svg>

<?xml version="1.0" encoding="UTF-8" standalone="no"?>
<!DOCTYPE svg PUBLIC "-//W3C//DTD SVG 1.1//EN" "http://www.w3.org/Graphics/SVG/1.1/DTD/svg11.dtd">
<svg xmlns="http://www.w3.org/2000/svg" xmlns:xl="http://www.w3.org/1999/xlink" version="1.1" xmlns:dc="http://purl.org/dc/elements/1.1/" viewBox="-742.997 -3555.4187 25 25" width="25" height="25">
  <defs/>
  <g id="SOURCES" stroke-opacity="1" fill="none" stroke="none" fill-opacity="1" stroke-dasharray="none">
    <title>SOURCES</title>
    <g id="SOURCES_Dark">
      <title>Dark</title>
      <g id="Graphic_11704">
        <title>views/view.other</title>
        <path d="M -738.657 -3554.9187 L -722.337 -3554.9187 C -720.2162 -3554.9187 -718.497 -3553.1995 -718.497 -3551.0787 L -718.497 -3534.7587 C -718.497 -3532.638 -720.2162 -3530.9187 -722.337 -3530.9187 L -738.657 -3530.9187 C -740.7777 -3530.9187 -742.497 -3532.638 -742.497 -3534.7587 L -742.497 -3551.0787 C -742.497 -3553.1995 -740.7777 -3554.9187 -738.657 -3554.9187 Z" fill="#666"/>
        <path d="M -738.657 -3554.9187 L -722.337 -3554.9187 C -720.2162 -3554.9187 -718.497 -3553.1995 -718.497 -3551.0787 L -718.497 -3534.7587 C -718.497 -3532.638 -720.2162 -3530.9187 -722.337 -3530.9187 L -738.657 -3530.9187 C -740.7777 -3530.9187 -742.497 -3532.638 -742.497 -3534.7587 L -742.497 -3551.0787 C -742.497 -3553.1995 -740.7777 -3554.9187 -738.657 -3554.9187 Z" stroke="white" stroke-linecap="round" stroke-linejoin="round" stroke-width=".25"/>
      </g>
      <g id="Graphic_11703">
        <path d="M -738.4699 -3543.0633 C -736.7625 -3547.4666 -731.80875 -3549.652 -727.4054 -3547.9447 C -725.1646 -3547.076 -723.3929 -3545.304 -722.524 -3543.0633 C -722.48795 -3542.9703 -722.48795 -3542.867 -722.524 -3542.774 C -724.2314 -3538.3708 -729.1852 -3536.1853 -733.5885 -3537.8927 C -735.8293 -3538.7616 -737.601 -3540.5333 -738.4699 -3542.774 C -738.506 -3542.867 -738.506 -3542.9703 -738.4699 -3543.0633 Z M -733.2993 -3538.6386 C -729.3564 -3537.1097 -724.9267 -3539.0243 -723.32765 -3542.9187 C -724.1343 -3544.8814 -725.7119 -3546.43 -727.6946 -3547.199 C -731.6375 -3548.7277 -736.0673 -3546.813 -737.6663 -3542.9187 C -736.8596 -3540.956 -735.282 -3539.4074 -733.2993 -3538.6386 Z M -730.497 -3539.7187 C -732.2643 -3539.7187 -733.697 -3541.1514 -733.697 -3542.9187 C -733.697 -3544.686 -732.2643 -3546.1187 -730.497 -3546.1187 C -728.7297 -3546.1187 -727.297 -3544.686 -727.297 -3542.9187 C -727.297 -3541.1514 -728.7297 -3539.7187 -730.497 -3539.7187 Z M -730.497 -3540.5187 C -729.1715 -3540.5187 -728.097 -3541.5932 -728.097 -3542.9187 C -728.097 -3544.244 -729.1715 -3545.3187 -730.497 -3545.3187 C -731.82245 -3545.3187 -732.897 -3544.244 -732.897 -3542.9187 C -732.897 -3541.5932 -731.82245 -3540.5187 -730.497 -3540.5187 Z" fill="#c0e0ff"/>
      </g>
    </g>
  </g>
</svg>
